Simply-Cyan-Circles/scalable/panel/system.svg

<svg xmlns="http://www.w3.org/2000/svg" width="24" height="24" viewBox="0 0 6.35 6.35"><path d="M1.26.83a.43.43 0 0 0-.43.43v2.92c0 .24.2.43.43.43h1.08v.52h-1v.4h3.73v-.4H4.04V4.6h1.05a.43.43 0 0 0 .43-.43V1.26a.43.43 0 0 0-.43-.43zm.33.42h3.2a.33.33 0 0 1 .33.33v2.27a.33.33 0 0 1-.33.33h-3.2a.33.33 0 0 1-.33-.33V1.58a.33.33 0 0 1 .33-.33z" fill="#5beedc"/></svg>

<?xml version="1.0" encoding="UTF-8" standalone="no"?>
<svg
   xmlns:dc="http://purl.org/dc/elements/1.1/"
   xmlns:cc="http://creativecommons.org/ns#"
   xmlns:rdf="http://www.w3.org/1999/02/22-rdf-syntax-ns#"
   xmlns:svg="http://www.w3.org/2000/svg"
   xmlns="http://www.w3.org/2000/svg"
   xmlns:sodipodi="http://sodipodi.sourceforge.net/DTD/sodipodi-0.dtd"
   xmlns:inkscape="http://www.inkscape.org/namespaces/inkscape"
   width="24"
   height="24"
   viewBox="0 0 6.35 6.35"
   version="1.1"
   id="svg4"
   sodipodi:docname="system.svg"
   inkscape:version="0.92.4 (5da689c313, 2019-01-14)">
  <metadata
     id="metadata10">
    <rdf:RDF>
      <cc:Work
         rdf:about="">
        <dc:format>image/svg+xml</dc:format>
        <dc:type
           rdf:resource="http://purl.org/dc/dcmitype/StillImage" />
        <dc:title></dc:title>
      </cc:Work>
    </rdf:RDF>
  </metadata>
  <defs
     id="defs8" />
  <sodipodi:namedview
     pagecolor="#ffffff"
     bordercolor="#666666"
     borderopacity="1"
     objecttolerance="10"
     gridtolerance="10"
     guidetolerance="10"
     inkscape:pageopacity="0"
     inkscape:pageshadow="2"
     inkscape:window-width="1087"
     inkscape:window-height="480"
     id="namedview6"
     showgrid="false"
     inkscape:zoom="9.8333333"
     inkscape:cx="1.0677966"
     inkscape:cy="12"
     inkscape:window-x="0"
     inkscape:window-y="25"
     inkscape:window-maximized="0"
     inkscape:current-layer="svg4" />
  <path
     d="M 1.26,0.83 A 0.43,0.43 0 0 0 0.83,1.26 v 2.92 c 0,0.24 0.2,0.43 0.43,0.43 h 1.08 v 0.52 h -1 v 0.4 H 5.07 V 5.13 H 4.04 V 4.6 H 5.09 A 0.43,0.43 0 0 0 5.52,4.17 V 1.26 A 0.43,0.43 0 0 0 5.09,0.83 Z m 0.33,0.42 h 3.2 A 0.33,0.33 0 0 1 5.12,1.58 V 3.85 A 0.33,0.33 0 0 1 4.79,4.18 H 1.59 A 0.33,0.33 0 0 1 1.26,3.85 V 1.58 A 0.33,0.33 0 0 1 1.59,1.25 Z"
     id="path2"
     inkscape:connector-curvature="0"
     style="fill:#5beedc" />
</svg>
